X: 1
T: Biscuits & Gravy
C: Mike & Dayle Black 2006-3-23
R: reel
Z: 2020 John Chambers <jc:trillian.mit.edu>
S: https://www.facebook.com/groups/Fiddletuneoftheday/ 2006-03-13
S: https://www.facebook.com/groups/Fiddletuneoftheday/photos/
S: https://www.threebeansalad.net/ [in image, but doesn't work 2020-9-13]
S: http://www.squirrelsnestlive.com/pdfs/Biscuits%20and%20Gravy%20CC.pdf
N: The chords are a bit wonky (or missing) in places.
M: 4/4
L: 1/8
K: Bm	% and D
|:\
"Bm"F2BF "F#m"AFEG | "Bm"FBdf "F#m"edBA | "Bm"F2BF "F#m"AFEG |     FEDB, "Bm"A,B,B,2 |
"Bm"F2BF "F#m"AFEG | "Bm"FBdf "F#m"a2ba | "Bm"fedf  "Em"edBG | "F#"FB^Ac "Bm"dBB2   :|
|:\
"G"BDDA DDFD | "A"E2EG-  GFED | "G"BDDA     DDFD | "A"EDA,B,  "D"D2D2  |
"G"BDDA DDBc | "Bm"dDDd- d2de | "D"fedf "Em"edBG | "F#"FB^Ac "Bm"dBB2 :|
